pages/travel-inside/img/svg/youtube.svg

<svg width="25" height="25" viewBox="0 0 25 25" fill="none" xmlns="http://www.w3.org/2000/svg">
<path d="M10.9431 14.8419L15.0092 12.5L10.9431 10.1582V14.8419Z" fill="black"/>
<path d="M12.5 0C5.5975 0 0 5.5975 0 12.5C0 19.4025 5.5975 25 12.5 25C19.4025 25 25 19.4025 25 12.5C25 5.5975 19.4025 0 12.5 0ZM20.3106 12.5128C20.3106 12.5128 20.3106 15.0478 19.989 16.2703C19.8088 16.9394 19.2812 17.4669 18.6121 17.647C17.3897 17.9688 12.5 17.9688 12.5 17.9688C12.5 17.9688 7.6231 17.9688 6.3879 17.6342C5.7188 17.4541 5.19123 16.9264 5.01099 16.2573C4.68922 15.0478 4.68922 12.5 4.68922 12.5C4.68922 12.5 4.68922 9.96513 5.01099 8.74271C5.19104 8.07362 5.73158 7.53307 6.3879 7.35302C7.61032 7.03125 12.5 7.03125 12.5 7.03125C12.5 7.03125 17.3897 7.03125 18.6121 7.3658C19.2812 7.54585 19.8088 8.07362 19.989 8.74271C20.3236 9.96513 20.3106 12.5128 20.3106 12.5128Z" fill="black"/>
</svg>

<svg xmlns="http://www.w3.org/2000/svg" width="25" height="25" fill="#000"><path d="M10.94 14.84l4.07-2.34-4.07-2.34v4.68z"/><path d="M12.5 0a12.5 12.5 0 100 25 12.5 12.5 0 000-25zm7.81 12.51s0 2.54-.32 3.76c-.18.67-.7 1.2-1.38 1.38-1.22.32-6.11.32-6.11.32s-4.88 0-6.11-.34c-.67-.18-1.2-.7-1.38-1.37-.32-1.21-.32-3.76-.32-3.76s0-2.53.32-3.76A2 2 0 016.4 7.35c1.22-.32 6.11-.32 6.11-.32s4.89 0 6.11.34c.67.18 1.2.7 1.38 1.37.33 1.23.32 3.77.32 3.77z"/></svg>
